!!! OTL: Fang\,Yang/,Ge- (Song of herd)
!!! YEC: Copyright 2001, Chia-wei Lee
!! For Voice Only
!! [Moderato]
**kern	**silbe
*clefG2	*LXinhua
*F:	*ping-ying
*M2/4	*
=5	=5
(8dd	Fang\
8ff)	|
(8cc	Yang/
8a)	|
=6	=6
(8dd	shang\
8ff)	|
(8cc	Shan-
8a)	|
=7	=7
2dd	Po-
=8	=8
8cc	Qing-
4cc	Cao^
8dd	Er/
=9	=9
(8dd	Duo-
8cc)	|
(8a	You\
8f)	|
=10	=10
2g	Duo-
=11	=11
8a	Yang/
8cc	Er/
8dd	Fei/
8ff	Lai/
=12	=12
8a	Niu/
8g	er/
(8f	Zhuang\
8d)	|
=13	=13
8a	Fang\
16a	Yang/
16cc	De
8g	Xiao\
8f	He-
=14	=14
2d	He-
=15	=15
(8dd	Chuen-
8ff)	|
8cc	Tian-
8a	Li^
=16	=16
(8dd	Chuen-
8ff)	|
(8cc	Geng-
8a)	|
=17	=17
2dd	Mang/
=18	=18
8cc	Chuen-
4cc	Fong-
8dd	Er/
=19	=19
(8dd	Nuan^
8cc)	|
(8a	Yang/
8f)	|
=20	=20
2g	Yang/
=21	=21
8a	Hu/
8cc	Die/
8dd	Fei-
8ff	Lai/
=22	=22
8a	you\
8g	Fai-
(8f	Qu\
8d)	|
=23	=23
16a	Hua-
16a	Er/
16a	Kai-
16cc	De
8g	Hong/
8f	You\
=24	=24
2dd	Duo-
=	=
*-	*-
